icons/svg/road_shields/h_us_alt_icon_shield.svg

<?xml version="1.0" encoding="UTF-8" standalone="no"?>
<!-- Generator: Adobe Illustrator 16.0.4, SVG Export Plug-In . SVG Version: 6.00 Build 0)  -->

<svg
   xmlns:dc="http://purl.org/dc/elements/1.1/"
   xmlns:cc="http://creativecommons.org/ns#"
   xmlns:rdf="http://www.w3.org/1999/02/22-rdf-syntax-ns#"
   xmlns:svg="http://www.w3.org/2000/svg"
   xmlns="http://www.w3.org/2000/svg"
   xmlns:sodipodi="http://sodipodi.sourceforge.net/DTD/sodipodi-0.dtd"
   xmlns:inkscape="http://www.inkscape.org/namespaces/inkscape"
   version="1.1"
   id="Слой_1"
   x="0px"
   y="0px"
   width="25"
   height="41"
   viewBox="0 0 25 41"
   enable-background="new 0 0 17.143 17.17"
   xml:space="preserve"
   inkscape:version="0.91 r"
   sodipodi:docname="h_us_alt_icon_shield.svg"><metadata
     id="metadata13"><rdf:RDF><cc:Work
         rdf:about=""><dc:format>image/svg+xml</dc:format><dc:type
           rdf:resource="http://purl.org/dc/dcmitype/StillImage" /><dc:title /></cc:Work></rdf:RDF></metadata><defs
     id="defs11" /><sodipodi:namedview
     pagecolor="#ffffff"
     bordercolor="#666666"
     borderopacity="1"
     objecttolerance="10"
     gridtolerance="10"
     guidetolerance="10"
     inkscape:pageopacity="0"
     inkscape:pageshadow="2"
     inkscape:window-width="1920"
     inkscape:window-height="1004"
     id="namedview9"
     showgrid="false"
     inkscape:zoom="19.43823"
     inkscape:cx="3.1272492"
     inkscape:cy="33.474459"
     inkscape:window-x="1680"
     inkscape:window-y="0"
     inkscape:window-maximized="1"
     inkscape:current-layer="Слой_1"
     showguides="false" /><rect
     style="color:#000000;clip-rule:evenodd;display:inline;overflow:visible;visibility:visible;opacity:1;isolation:auto;mix-blend-mode:normal;color-interpolation:sRGB;color-interpolation-filters:linearRGB;solid-color:#000000;solid-opacity:1;fill:#ffffff;fill-opacity:1;fill-rule:evenodd;stroke:#515151;stroke-width:1.08273661;stroke-linecap:butt;stroke-linejoin:miter;stroke-miterlimit:4;stroke-dasharray:none;stroke-dashoffset:0;stroke-opacity:1;marker:none;color-rendering:auto;image-rendering:auto;shape-rendering:auto;text-rendering:auto;enable-background:accumulate"
     id="rect4135"
     width="19.803215"
     height="7.0026784"
     x="2.598392"
     y="0.56049848"
     ry="0" /><path
     inkscape:connector-curvature="0"
     id="path4147"
     style="font-style:normal;font-variant:normal;font-weight:bold;font-stretch:normal;font-size:medium;line-height:123.00000191%;font-family:Sans;-inkscape-font-specification:'Sans Bold';letter-spacing:0.89357334px;word-spacing:0px;fill:#515151;fill-opacity:1;stroke:none;stroke-width:1px;stroke-linecap:butt;stroke-linejoin:miter;stroke-opacity:1"
     d="m 8.6715988,5.3525836 -1.8526395,0 -0.2923599,0.7618892 -1.1909826,0 1.7018432,-4.1819877 1.4125607,0 1.7018433,4.1819877 -1.1909827,0 -0.2892825,-0.7618892 z m -1.557202,-0.7758946 1.258687,0 L 7.745279,2.9128573 7.1143968,4.576689 Z" /><path
     inkscape:connector-curvature="0"
     id="path4149"
     style="font-style:normal;font-variant:normal;font-weight:bold;font-stretch:normal;font-size:medium;line-height:123.00000191%;font-family:Sans;-inkscape-font-specification:'Sans Bold';letter-spacing:0.89357334px;word-spacing:0px;fill:#515151;fill-opacity:1;stroke:none;stroke-width:1px;stroke-linecap:butt;stroke-linejoin:miter;stroke-opacity:1"
     d="m 11.884505,1.9324851 1.184828,0 0,3.3668783 2.080373,0 0,0.8151094 -3.265201,0 0,-4.1819877 z" /><path
     inkscape:connector-curvature="0"
     id="path4151"
     style="font-style:normal;font-variant:normal;font-weight:bold;font-stretch:normal;font-size:medium;line-height:123.00000191%;font-family:Sans;-inkscape-font-specification:'Sans Bold';letter-spacing:0.89357334px;word-spacing:0px;fill:#515151;fill-opacity:1;stroke:none;stroke-width:1px;stroke-linecap:butt;stroke-linejoin:miter;stroke-opacity:1"
     d="m 15.429779,1.9324851 4.234604,0 0,0.8151095 -1.52335,0 0,3.3668782 -1.184827,0 0,-3.3668782 -1.526427,0 0,-0.8151095 z" /></svg>

<svg width="25" height="41" viewBox="0 0 25 41" fill="none" xmlns="http://www.w3.org/2000/svg">
<path d="M22.4016 0.560486H2.59839V7.56316H22.4016V0.560486Z" fill="white" stroke="#515151" stroke-width="1.08274"/>
<path d="M8.6716 5.35259H6.81896L6.5266 6.11448H5.33562L7.03746 1.9325H8.45002L10.1519 6.11448H8.96088L8.6716 5.35259ZM7.1144 4.5767H8.37308L7.74528 2.91287L7.1144 4.5767Z" fill="#515151"/>
<path d="M11.8845 1.9325H13.0693V5.29937H15.1497V6.11448H11.8845V1.9325V1.9325Z" fill="#515151"/>
<path d="M15.4298 1.9325H19.6644V2.7476H18.141V6.11448H16.9562V2.7476H15.4298V1.9325V1.9325Z" fill="#515151"/>
</svg>
